X:SSF 13-19 116
T:Battered Hake
C:Colin Cotter
M:4/4
K:D
P:A
d2cd e2c2 d2B2 A2A2 |1,3 B2G2 GABG A2F2 E2D2 :|2,4 B2G2 c2A2 d2B2 e2c2 :|
P:B
DEFG A2A2 DEFG A2A2 |1,3 EFGA B2B2 EFGA B2B2 :|2 B2G2 GABG A2F2 E2D2 :|4 B2G2 c2A2 d2B2 e2c2 ||

% Into SSF 13-19 117 The Sloe

